X: 1
T: Bonnets So Blue   [C]
O: England
R: jig
Z: 1997 by John Chambers <jc:trillian.mit.edu>
B: Karpeles & Schofield p.4 (in C), p.41 (in D)
B: Barnes II p.14 (in C)
M: 6/8
L: 1/8
K: C
G \
| "C"c>dc efg | "(G)"G>AG "G7"GAB | "C"c>eg gec | "G7"d2e gfd \
| "C"c>dc efg | "G7"G>AG G2g | g>fe dcB | "C"c3- c2 ||
c \
| "G"B>cd ded | "G"G3- G2c | "G7"B>cd def | "(C)"g3- g2f \
| "C"e2d c2B | "Am"A2B c2d | "E7"e>fe dcB | "Am"A3- "(G7)"A2 ||
G \
| "C"c>dc e>fg | "C"c2c c2G | "C"c>eg "Am"gec | "Dm"d>ed "G7"d2G \
| "C"c>dc e>fg | "G7"G>AG G2g | "(C)"g>fe "G7"dcB | "C"c3- c2 |]
